X: 38114
T: Sport Of Fate
R: jig
M: 6/8
K: Adorian
M:7/8
c2 AG EED|EE AE GAB|c2 AG EED|EE AG AAB|
ce AG EED|EE AE GAB|c2 AG EED|EE AG AAd|
|:e2 af ggd|ee dc Bcd|ee dB cAG|EE AG Bcd|
e2 af ggd|ee dc Bcd|ee dB cAG|1 EE AG AAd:|2 EE AG AAB||

